public/icons/aave_classic.svg

<svg viewBox="0 0 20 20" fill="none" xmlns="http://www.w3.org/2000/svg">
<path d="M15.1674 18.3333C14.9959 18.3329 14.8316 18.2661 14.7103 18.1474C14.589 18.0287 14.5208 17.8678 14.5204 17.7V15.8551C14.5204 15.6872 14.4522 15.5261 14.3309 15.4073C14.2095 15.2886 14.0449 15.2218 13.8733 15.2218C13.7017 15.2218 13.5371 15.2886 13.4158 15.4073C13.2944 15.5261 13.2263 15.6872 13.2263 15.8551V16.7309C13.2263 16.8989 13.1581 17.0599 13.0368 17.1787C12.9154 17.2975 12.7508 17.3642 12.5792 17.3642C12.4076 17.3642 12.243 17.2975 12.1217 17.1787C12.0003 17.0599 11.9322 16.8989 11.9322 16.7309V15.8551C11.9322 15.6872 11.864 15.5261 11.7426 15.4073C11.6213 15.2886 11.4567 15.2218 11.2851 15.2218C11.1135 15.2218 10.9489 15.2886 10.8276 15.4073C10.7062 15.5261 10.638 15.6872 10.638 15.8551V16.0935C10.638 16.2616 10.5698 16.4228 10.4484 16.5416C10.3269 16.6605 10.1622 16.7272 9.9905 16.7272C9.81876 16.7272 9.65405 16.6605 9.53261 16.5416C9.41118 16.4228 9.34295 16.2616 9.34295 16.0935V15.8551C9.34295 15.6872 9.27478 15.5261 9.15343 15.4073C9.03209 15.2886 8.86751 15.2218 8.6959 15.2218C8.52429 15.2218 8.3597 15.2886 8.23836 15.4073C8.11701 15.5261 8.04884 15.6872 8.04884 15.8551V16.7309C8.04884 16.8989 7.98067 17.0599 7.85932 17.1787C7.73797 17.2975 7.57339 17.3642 7.40178 17.3642C7.23017 17.3642 7.06559 17.2975 6.94425 17.1787C6.8229 17.0599 6.75473 16.8989 6.75473 16.7309V15.8551C6.75473 15.6872 6.68656 15.5261 6.56521 15.4073C6.44386 15.2886 6.27928 15.2218 6.10767 15.2218C5.93606 15.2218 5.77148 15.2886 5.65013 15.4073C5.52879 15.5261 5.46062 15.6872 5.46062 15.8551V17.7C5.46062 17.868 5.39244 18.029 5.2711 18.1478C5.14975 18.2666 4.98517 18.3333 4.81356 18.3333C4.64195 18.3333 4.47737 18.2666 4.35602 18.1478C4.23468 18.029 4.1665 17.868 4.1665 17.7V7.24346C4.19773 5.94577 4.67967 4.6972 5.53293 3.70347C6.38619 2.70974 7.55985 2.03013 8.86055 1.77662C10.1612 1.5231 11.5114 1.71081 12.6885 2.30881C13.8656 2.90681 14.7995 3.87942 15.3362 5.06641C15.6472 5.75283 15.8159 6.49278 15.8328 7.24346C15.8339 7.25125 15.8327 7.25919 15.8293 7.26634C15.8259 7.27348 15.8206 7.27954 15.8138 7.2838V17.6996C15.8136 17.8674 15.7455 18.0284 15.6244 18.1471C15.5032 18.2659 15.3389 18.3329 15.1674 18.3333V18.3333ZM9.33578 8.90519C9.17148 8.90519 9.10481 8.96742 9.10481 9.1212C9.10481 9.49499 9.5268 9.79898 10.0463 9.79898C10.5657 9.79898 10.9863 9.49499 10.9863 9.1212C10.9863 8.9677 10.9197 8.90547 10.7558 8.90547C10.6681 8.9085 10.5808 8.91719 10.4943 8.93149L10.4861 8.93286C10.3407 8.95622 10.1938 8.96933 10.0464 8.9721C9.8987 8.96933 9.75137 8.95622 9.60557 8.93286C9.5164 8.91759 9.42625 8.90835 9.33578 8.90519V8.90519ZM12.1524 5.82802C11.5797 5.82802 11.1141 6.34995 11.1141 6.99179C11.1141 7.63363 11.5797 8.15459 12.1524 8.15459C12.7252 8.15459 13.1891 7.63294 13.1891 6.99179C13.1891 6.35064 12.7242 5.82802 12.1524 5.82802ZM7.84741 5.82802C7.27603 5.82802 6.81071 6.34995 6.81071 6.99179C6.81071 7.63363 7.27603 8.15459 7.84741 8.15459C8.41879 8.15459 8.88439 7.63294 8.88439 6.99179C8.88439 6.35064 8.41921 5.82802 7.84741 5.82802V5.82802Z" fill="currentcolor"/>
</svg>

<svg viewBox="0 0 20 20" fill="none" xmlns="http://www.w3.org/2000/svg"><path d="M15.167 18.333a.656.656 0 0 1-.457-.186.628.628 0 0 1-.19-.447v-1.845a.627.627 0 0 0-.19-.448.655.655 0 0 0-.914 0 .626.626 0 0 0-.19.448v.876a.627.627 0 0 1-.19.448.654.654 0 0 1-.914 0 .626.626 0 0 1-.19-.448v-.876a.627.627 0 0 0-.19-.448.654.654 0 0 0-.914 0 .627.627 0 0 0-.19.448v.238c0 .169-.068.33-.19.449a.655.655 0 0 1-.915 0 .627.627 0 0 1-.19-.449v-.238a.627.627 0 0 0-.19-.448.655.655 0 0 0-.915 0 .627.627 0 0 0-.19.448v.876a.627.627 0 0 1-.189.448.654.654 0 0 1-.915 0 .627.627 0 0 1-.19-.448v-.876a.627.627 0 0 0-.189-.448.655.655 0 0 0-.915 0 .627.627 0 0 0-.19.448V17.7a.627.627 0 0 1-.189.448.654.654 0 0 1-.915 0 .627.627 0 0 1-.19-.448V7.243a5.641 5.641 0 0 1 1.367-3.54A5.861 5.861 0 0 1 8.86 1.777a5.948 5.948 0 0 1 3.827.532 5.763 5.763 0 0 1 2.648 2.757c.311.687.48 1.427.497 2.177a.042.042 0 0 1-.019.04V17.7a.628.628 0 0 1-.19.447.655.655 0 0 1-.457.186ZM9.336 8.905c-.165 0-.231.062-.231.216 0 .374.422.678.941.678.52 0 .94-.304.94-.678 0-.153-.066-.216-.23-.216a2.033 2.033 0 0 0-.262.026l-.008.002a3.144 3.144 0 0 1-.44.04 3.161 3.161 0 0 1-.44-.04 2.015 2.015 0 0 0-.27-.028Zm2.816-3.077c-.572 0-1.038.522-1.038 1.164 0 .642.466 1.163 1.038 1.163.573 0 1.037-.522 1.037-1.163s-.465-1.164-1.037-1.164Zm-4.305 0c-.571 0-1.036.522-1.036 1.164 0 .642.465 1.163 1.036 1.163.572 0 1.037-.522 1.037-1.163S8.42 5.828 7.847 5.828Z" fill="currentcolor"/></svg>
